X:1
T:Title
%%score ( 1 2 3 ) 4
L:1/8
Q:1/4=102
M:4/4
K:Bb
V:1 treble nm="Grand Piano, Soprano"
V:2 treble 
V:3 treble 
V:4 bass nm="Choir Pad, Hear the Angels Singing"
V:1
 B4 z2 .B2 | d4 B4 | c4 z4 | G4 F4 | B4 z2 .B2 | d4 B4 | .d2 .=B2 z4 | [Ec]6 z2 | d4 z4 | d4 G4 | %10
w: By~Charles~Austin~Miles *||||||||||
 c4 z4 | B4 F4 | B4 z4 | [DF]2 [DB]2 [Ff]2 [Ge]2 | [Fd]3 [DB] [Fd]2 [Ec]2 | [DB]6 z2 | %16
w: ||||||
 [FB]3 [Fc] [Fd]2 F2 | [EG] [EB]3 [eg] [eb]3 | [Fc]3 [Fd] [Fe]2 [Fc]2 | A [Fc]3 [fa] [fc']3 | %20
w: ||||
 [Ff]3 [Ff] [Fe]2 [Fd]2 | [Gc]2 [EG]2 [=EA]2 [EB]2 | [=Ed]3 [Ec] [Ed]2 [Ec]2 | [Fc]2 c'd' e'c'af | %24
w: ||||
 [FB]3 [Fc] [Fd]2 F2 | [EG] [EB]3 [eg] [eb]3 | [Fc]3 [Fd] [Fe]2 [Fc]2 | A [Fc]3 [fa] [fc']3 | %28
w: ||||
 [Ff]3 [Ff] [Fe]2 [Fd]2 | [Gc]2 [EG]2 [=EA]2 [EB]2 | [Ff]3 [GBe] [FBd]2 [EFc]2 | [DFB]8 |] %32
w: ||||
V:2
 [DF]2 FF DF[DF]-[DFc] | [DF]2 [DF]2 [DF]2 [DF]2 | E2 z B AG[EF]E | _D2 D2 =D2 D2 | %4
 [DF]2 FF DF[DF]-[DFc] | [DG]2 [DG]2 [DG]2 [DG]2 | =E-[Ec]E-[Ec] [Ed]2 [Ec]2 | x8 | F2 z d dded | %9
 [DG]2 [DG]2 D2 D2 | =E2 z c ccdc | E2 E2 E2 E2 | D2 z B BBAG | x8 | x8 | x8 | x8 | x8 | x8 | x8 | %20
 x8 | x8 | x8 | x8 | x8 | x8 | x8 | x8 | x8 | x8 | x8 | x8 |] %32
V:3
 z2 D2 z4 | x8 | z2 E2 E2 z2 | x8 | z2 D2 z4 | x8 | x8 | x8 | z2 F2 ^F2 F2 | x8 | z2 =E2 E2 E2 | %11
 x8 | z2 D2 _D2 D2 | x8 | x8 | x8 | x8 | x8 | x8 | x8 | x8 | x8 | x8 | x8 | x8 | x8 | x8 | x8 | %28
 x8 | x8 | x8 | x8 |] %32
V:4
 [B,,B,]2 [B,,B,]2 [B,,B,]2 [B,,B,]2 | [B,,B,]2 [B,,B,]2 [B,,B,]2 [B,,B,]2 | %2
 [F,A,]2 [F,A,]2 [F,A,]2 [F,A,]2 | [B,,=E,]2 [B,,E,]2 [B,,F,]2 [B,,F,]2 | %4
 [B,,B,]2 [B,,B,]2 [B,,B,]2 [B,,B,]2 | [G,B,]2 [G,B,]2 [G,B,]2 [G,B,]2 | %6
 [C,B,]2 [C,B,]2 [C,B,]2 [C,B,]2 | [F,A,]2 [F,,F,]2 [G,,G,]2 [A,,A,]2 | %8
 [B,D]2 [B,D]2 [A,C]2 [A,C]2 | [G,B,]2 [G,B,]2 [G,B,]2 [G,B,]2 | [C,B,]2 [C,B,]2 [C,B,]2 [C,B,]2 | %11
 [F,A,]2 [F,A,]2 [F,A,]2 [F,A,]2 | [B,,F,]2 [B,,F,]2 [B,,=E,]2 [B,,E,]2 | %13
 [B,,F,]2 [B,,F,]2 [D,B,]2 [E,B,]2 | [F,B,]3 [F,B,] [F,B,]2 [F,A,]2 | [B,,B,]6 z2 | %16
 [B,D]3 [B,D] [B,D]2 [B,D]2 | [E,B,] [E,G,]3[K:treble] [EB] [EG]3 | [F,A,]3 [F,B,] [F,C]2 [F,A,]2 | %19
 [F,C] [F,A,]3[K:treble] [Fc] [FA]3 | [B,D]3 [B,D] [A,C]2[K:bass] [B,D]2 | %21
 [E,E]2 [E,B,]2 [G,B,]2 [G,B,]2 | [C,B,]3 [C,B,] [C,B,]2 [C,B,]2 | [F,A,]2 z2 z4 | %24
 [B,D]3 [B,D] [B,D]2 [B,D]2 | [E,B,] [E,G,]3[K:treble] [EB] [EG]3 | [F,A,]3 [F,B,] [F,C]2 [F,A,]2 | %27
 [F,C] [F,A,]3[K:treble] [Fc] [FA]3 | [B,D]3 [B,D] [A,C]2[K:bass] [B,D]2 | %29
 [E,E]2 [E,B,]2 [G,B,]2 [G,C]2 | [F,B,D]3 [E,B,] [F,B,]2 [F,A,]2 | [B,,B,]8 |] %32

